X: 1
T: Haughton House
S: Boys of the Lough recording
R: reel
Z: 2005 John Chambers <jc:trillian.mit.edu>
M: C|
L: 1/8
K: G
D2 \
| "G"G2BG D2GD | B,CDB, G,2AB | "C"c2B2 A2G2 | E4- "D7"E2D2 \
| "G"G2BG D2GD | B,CDB, G,2AB | "C"cBce "D7"d2F2 | "G"G6 :|
d2 \
| "G"g2f2 e2d2 | e2d2 B2G2 | "C"c2B2 A2G2 | E4- "D7"E2D2 \
| "G"G2BG D2GD | B,CDB, G,2AB | "C"cBce "D7"d2F2 | "G"G6 |]
d2 \
| "G"g2f2 e2d2 | e2d2 B2G2 | "C"c2B2 A2G2 | E4- "D7"E2BA \
| "G"GFGA G2B,C | DCB,A, G,2 AB | "C"cBce "D7"d2F2 | "G"G6 |]
